X:1
T:Title
%%score 1 2
L:1/8
Q:1/4=82
M:4/4
K:Bb
V:1 treble nm="Grand Piano, Soprano"
V:2 bass nm="Choir Pad, Bergamo, Harold B. Adams"
V:1
 [DF][Fd]- [Fd]/[Ec]/[DB] [EG][EG] [DF]2 | [DB][Fc]- [Fc]/[Fc]/[FB] [Fd] [Fc]3 | %2
w: By~Harold~B.~Adams,~1880 * * * * * * *||
 F[Fd]- [Fd]/[Ec]/[DB] [EG][EG] [DF]2 | [DB][Ec]- [Ec]/[DB]/[Fd] [Ec] [DB]3 | %4
w: ||
 [FA][Ac]- [Ac]/[Ac]/[Ac] [Bd][Ac] [GB]2 | [FA][=EG]- [EG]/[EG]/[Ac] [GB] [FA]3 | %6
w: ||
 [FA][Ac]- [Ac]/[Ac]/[Ac] [Bd][ce] [Bd]2 | [Bd][Ac]- [Ac]/[GB]/[FA] [=EG] F3 | %8
w: ||
 F[Fd]- [Fd]/[Ec]/[DB] [EG][EG] [DF]2 | [DB][Fc]- [Fc]/[Fc]/[FB] [Fd] [Fc]3 | %10
w: ||
 F[Fd]- [Fd]/[Ec]/[DB] [DF][EG] [Ge]2 | [Ge][Fd]- [Fd]/[Ec]/[DB] [EA] [DB]3- | [DB]4 z4 |] %13
w: |||
V:2
 [B,,B,][B,,B,]- [B,,B,]/[F,A,]/[G,B,] [E,B,][B,,B,] [B,,B,]2 | %1
 [B,,B,][F,A,]- [F,A,]/[F,A,]/[D,B,] [B,,B,] [F,A,]3 | %2
 [F,A,][B,,B,]- [B,,B,]/[F,A,]/[G,B,] [E,B,][B,,B,] [B,,B,]2 | %3
 [B,,B,][F,A,]- [F,A,]/[F,B,]/[F,B,] [F,A,] [B,,B,]3 | z [F,,F,]3- [F,,F,] [C,,C,]3- | %5
 [C,,C,] [C,,C,]3- [C,,C,] [F,,F,]3- | [F,,F,] [F,,F,]3- [F,,F,] [B,,,B,,]3- | %7
 [B,,,B,,] [C,,C,]3- [C,,C,]/ z/ F, E,D, | %8
 [C,A,][B,,B,]- [B,,B,]/[F,A,]/[G,B,] [E,B,][B,,B,] [B,,B,]2 | %9
 [B,,B,][F,A,]- [F,A,]/[F,A,]/[D,B,] [B,,B,] [F,A,]3 | %10
 [F,A,][B,,B,]- [B,,B,]/[B,,B,]/[B,,B,] [B,,B,][E,B,] [E,B,]2 | %11
 [E,B,][F,B,]- [F,B,]/[F,A,]/[F,B,] [F,C] [B,,B,]3- | [B,,B,]4 z4 |] %13

